X:421
T:Grandfather's Polka
T:Tune
L:1/8
M:2/2
K:D
P:A
"D"F2A2 "G"B2c2|"D"dcde f2a2|"Em"g2f2 e2d2|"A7"c2B2 A2G2|\
"D"F2A2 "G"B2c2|"D"dcde f2a2|"Em"g2f2 "A7"e2Bc|"D"d2f2 d4:|
P:B
|:"A"e2AA e2AA|g2f2 e2AA|g2f2 e2d2|"A7"c2B2 A2G2|\
"D"F2A2 "G"B2c2|"D"dcde f2a2|"Em"g2f2 "A7"e2Bc|"D"d2f2 d4:|
T:Harmony
P:B
|:"A"A6B2|c6d2|e4f4|"A7"g4a4|\
"D"a2f2 "G"g2e2|"D"f2d4d2|"Em"e2c2 "A7"A2Bc|"D"d2f2 d4:|
%%newpage
%%textfont * 20
%%text P4 (1.1)
%%textfont * 12



